!!!OTL: Ach schoenster Schatz, mein Augentrost, hast meiner ganz vergessen ?
!!!ARE: Europa, Mitteleuropa, Deutschland, Untermainfranken, Spessart
!!!SCT: D0179
!!!YEM: Copyright 1995, estate of Helmut Schaffrath.
**kern
*ICvox
*Ivox
*M3/4
*k[f#]
*G:
=1
{8d
=2
8d
16e
16f#
4g
4b
=3
8a
8a
8g}
{8a
8b
8cc
=4
8.dd
16ee
8dd
8b
8cc
8dd
=5
4b
4r
8r}
{8d
=6
8g
8b
4dd
8ee
8dd
=7
8cc
8b
4.dd}
{8ee
=8
8b
8a
8b
8dd
8cc
8b
=9
8a
8g
8a}
{8d
8g
8b
=10
8dd
8ee
4dd
8cc
8dd
=11
4b
4r
8r}
==
!!!AGN: Liebes - Lied, Liebeslust
!! Inzipit = Variante zum Lied; Verzierung
!!!ONB: ESAC (Essen Associative Code) Database: DVA
!!!AMT: simple triple
!!!AIN: vox
!!!EED: Helmut Schaffrath
!!!EEV: 1.0
*-
